icons/numix/32x32/mimetypes/application-script-blank.svg

<?xml version="1.0" encoding="UTF-8" standalone="no"?>
<svg
   xmlns:dc="http://purl.org/dc/elements/1.1/"
   xmlns:cc="http://creativecommons.org/ns#"
   xmlns:rdf="http://www.w3.org/1999/02/22-rdf-syntax-ns#"
   xmlns:svg="http://www.w3.org/2000/svg"
   xmlns="http://www.w3.org/2000/svg"
   xmlns:sodipodi="http://sodipodi.sourceforge.net/DTD/sodipodi-0.dtd"
   xmlns:inkscape="http://www.inkscape.org/namespaces/inkscape"
   width="32"
   height="32"
   viewBox="0 0 32 32"
   id="svg2"
   version="1.1"
   inkscape:version="0.48.5 r10040"
   sodipodi:docname="application-script-blank.svg">
  <metadata
     id="metadata20">
    <rdf:RDF>
      <cc:Work
         rdf:about="">
        <dc:format>image/svg+xml</dc:format>
        <dc:type
           rdf:resource="http://purl.org/dc/dcmitype/StillImage" />
      </cc:Work>
    </rdf:RDF>
  </metadata>
  <defs
     id="defs18" />
  <sodipodi:namedview
     pagecolor="#ffffff"
     bordercolor="#666666"
     borderopacity="1"
     objecttolerance="10"
     gridtolerance="10"
     guidetolerance="10"
     inkscape:pageopacity="0"
     inkscape:pageshadow="2"
     inkscape:window-width="1280"
     inkscape:window-height="970"
     id="namedview16"
     showgrid="true"
     inkscape:zoom="10.429825"
     inkscape:cx="39.618808"
     inkscape:cy="3.1602811"
     inkscape:window-x="0"
     inkscape:window-y="0"
     inkscape:window-maximized="1"
     inkscape:current-layer="svg2">
    <inkscape:grid
       type="xygrid"
       id="grid3008" />
  </sodipodi:namedview>
  <path
     style="fill:#dcdcdc;fill-opacity:1"
     d="M 5.335888,2.972e-4 C 4.648414,3.121e-4 4,0.676788 4,1.3940314 L 4,30.606268 C 4,31.282757 4.687474,32 5.335888,32 l 21.327332,0 c 0.648414,0 1.335888,-0.717243 1.335888,-1.393732 L 28,8.9999999 l -9,-9 z"
     id="path4-1"
     inkscape:connector-curvature="0"
     sodipodi:nodetypes="ssssssccs" />
  <path
     style="fill:#000000;fill-opacity:0.19599998"
     d="M 21,8.9999999 28,16 28,8.9999999 z"
     id="path6-4"
     inkscape:connector-curvature="0"
     sodipodi:nodetypes="cccc" />
  <path
     style="fill:#ffffff;fill-opacity:0.39200003"
     d="m 19.000306,2.972e-4 8.991594,8.9997027 -7.613262,0 c -0.672951,0 -1.378332,-0.7134896 -1.378332,-1.3864402 z"
     id="path8-6"
     inkscape:connector-curvature="0"
     sodipodi:nodetypes="ccssc" />
  <g
     style="fill:#545454"
     id="g10"
     transform="matrix(1.3128207,0,0,1.254902,-5.0051304,-4.4184666)">
    <path
       d="m 12.917969,20.660156 c 0,0.40625 0.105469,0.699219 0.3125,0.882813 0.214843,0.183593 0.527343,0.28125 0.9375,0.289062 l 0,0.835938 c -0.6875,-0.0078 -1.222657,-0.183594 -1.597657,-0.519531 -0.378906,-0.339844 -0.566406,-0.816407 -0.566406,-1.429688 l 0,-1.808594 c 0,-0.414062 -0.113281,-0.707031 -0.34375,-0.882812 -0.226562,-0.179688 -0.558594,-0.269532 -0.992187,-0.269532 l 0,-0.84375 c 0.46875,-0.0078 0.808593,-0.101562 1.019531,-0.285156 0.210938,-0.183594 0.316406,-0.464844 0.316406,-0.847656 l 0,-1.828125 c 0,-0.617187 0.195313,-1.097656 0.585938,-1.441406 C 12.980469,12.171875 13.507812,12 14.167969,12 l 0,0.832031 c -0.835938,0.02344 -1.25,0.417969 -1.25,1.1875 l 0,1.761719 c 0,0.855469 -0.40625,1.359375 -1.214844,1.515625 l 0,0.07422 c 0.808594,0.152344 1.214844,0.660156 1.214844,1.515625 l 0,1.773437"
       id="path12"
       inkscape:connector-curvature="0" />
    <path
       d="m 20.285156,17.296875 c -0.808594,-0.15625 -1.214844,-0.660156 -1.214844,-1.515625 l 0,-1.761719 c 0,-0.769531 -0.410156,-1.164062 -1.234374,-1.1875 l 0,-0.832031 c 0.667968,0 1.191406,0.171875 1.574218,0.519531 0.382813,0.347657 0.574219,0.824219 0.574219,1.433594 l 0,1.828125 c 0,0.386719 0.105469,0.671875 0.320313,0.851562 0.214843,0.179688 0.558593,0.273438 1.027343,0.28125 l 0,0.84375 c -0.441406,0 -0.777343,0.08984 -1.003906,0.269532 -0.230469,0.175781 -0.34375,0.46875 -0.34375,0.882812 l 0,1.808594 c 0,0.609375 -0.1875,1.082031 -0.558594,1.421875 -0.371093,0.34375 -0.898437,0.519531 -1.589843,0.527344 l 0,-0.835938 c 0.402343,-0.0078 0.710937,-0.105469 0.921874,-0.289062 0.207032,-0.183594 0.3125,-0.476563 0.3125,-0.882813 l 0,-1.773437 c 0,-0.453125 0.101563,-0.800781 0.300782,-1.039063 0.199218,-0.238281 0.503906,-0.398437 0.914062,-0.476562 l 0,-0.07422"
       id="path14"
       inkscape:connector-curvature="0" />
  </g>
</svg>

<svg width="32" xmlns="http://www.w3.org/2000/svg" height="32" viewBox="0 0 32 32" xmlns:xlink="http://www.w3.org/1999/xlink">
<path style="fill:#dcdcdc" d="M 5.332031 0.667969 C 4.648438 0.667969 4 1.3125 4 2 L 4 30 C 4 30.648438 4.6875 31.332031 5.332031 31.332031 L 26.667969 31.332031 C 27.3125 31.332031 28 30.648438 28 30 L 28 9.332031 L 19.332031 0.667969 Z "/>
<path style="fill:#000;fill-opacity:.196" d="M 19.332031 8 L 19.375 8.042969 L 19.480469 8 Z M 20.667969 9.332031 L 28 16.667969 L 28 9.332031 Z "/>
<path style="fill:#fff;fill-opacity:.392" d="M 19.332031 0.667969 L 28 9.332031 L 20.667969 9.332031 C 20.019531 9.332031 19.332031 8.648438 19.332031 8 Z "/>
<g style="fill:#545454">
<path d="M 12.917969 20.660156 C 12.917969 21.066406 13.023438 21.359375 13.230469 21.542969 C 13.445312 21.726562 13.757812 21.824219 14.167969 21.832031 L 14.167969 22.667969 C 13.480469 22.660156 12.945312 22.484375 12.570312 22.148438 C 12.191406 21.808594 12.003906 21.332031 12.003906 20.71875 L 12.003906 18.910156 C 12.003906 18.496094 11.890625 18.203125 11.660156 18.027344 C 11.433594 17.847656 11.101562 17.757812 10.667969 17.757812 L 10.667969 16.914062 C 11.136719 16.90625 11.476562 16.8125 11.6875 16.628906 C 11.898438 16.445312 12.003906 16.164062 12.003906 15.78125 L 12.003906 13.953125 C 12.003906 13.335938 12.199219 12.855469 12.589844 12.511719 C 12.980469 12.171875 13.507812 12 14.167969 12 L 14.167969 12.832031 C 13.332031 12.855469 12.917969 13.25 12.917969 14.019531 L 12.917969 15.78125 C 12.917969 16.636719 12.511719 17.140625 11.703125 17.296875 L 11.703125 17.371094 C 12.511719 17.523438 12.917969 18.03125 12.917969 18.886719 L 12.917969 20.660156 "/>
<path d="M 20.285156 17.296875 C 19.476562 17.140625 19.070312 16.636719 19.070312 15.78125 L 19.070312 14.019531 C 19.070312 13.25 18.660156 12.855469 17.835938 12.832031 L 17.835938 12 C 18.503906 12 19.027344 12.171875 19.410156 12.519531 C 19.792969 12.867188 19.984375 13.34375 19.984375 13.953125 L 19.984375 15.78125 C 19.984375 16.167969 20.089844 16.453125 20.304688 16.632812 C 20.519531 16.8125 20.863281 16.90625 21.332031 16.914062 L 21.332031 17.757812 C 20.890625 17.757812 20.554688 17.847656 20.328125 18.027344 C 20.097656 18.203125 19.984375 18.496094 19.984375 18.910156 L 19.984375 20.71875 C 19.984375 21.328125 19.796875 21.800781 19.425781 22.140625 C 19.054688 22.484375 18.527344 22.660156 17.835938 22.667969 L 17.835938 21.832031 C 18.238281 21.824219 18.546875 21.726562 18.757812 21.542969 C 18.964844 21.359375 19.070312 21.066406 19.070312 20.660156 L 19.070312 18.886719 C 19.070312 18.433594 19.171875 18.085938 19.371094 17.847656 C 19.570312 17.609375 19.875 17.449219 20.285156 17.371094 L 20.285156 17.296875 "/>
</g>
</svg>
